la/skype.svg

<svg xmlns="http://www.w3.org/2000/svg" viewBox="0 0 32 32" height="1em" width="1em">
  <path d="M 11 4 C 7.144531 4 4 7.144531 4 11 C 4 12.03125 4.316406 12.988281 4.71875 13.875 C 4.589844 14.566406 4.5 15.269531 4.5 16 C 4.5 22.339844 9.660156 27.5 16 27.5 C 16.730469 27.5 17.433594 27.410156 18.125 27.28125 C 19.011719 27.683594 19.96875 28 21 28 C 24.855469 28 28 24.855469 28 21 C 28 19.96875 27.683594 19.011719 27.28125 18.125 C 27.410156 17.433594 27.5 16.730469 27.5 16 C 27.5 9.660156 22.339844 4.5 16 4.5 C 15.269531 4.5 14.566406 4.589844 13.875 4.71875 C 12.988281 4.316406 12.03125 4 11 4 Z M 11 6 C 11.863281 6 12.667969 6.210938 13.375 6.59375 C 13.585938 6.707031 13.828125 6.738281 14.0625 6.6875 C 14.691406 6.558594 15.332031 6.5 16 6.5 C 21.257813 6.5 25.5 10.742188 25.5 16 C 25.5 16.667969 25.441406 17.308594 25.3125 17.9375 C 25.261719 18.171875 25.292969 18.414063 25.40625 18.625 C 25.789063 19.332031 26 20.136719 26 21 C 26 23.773438 23.773438 26 21 26 C 20.136719 26 19.332031 25.789063 18.625 25.40625 C 18.414063 25.292969 18.171875 25.261719 17.9375 25.3125 C 17.308594 25.441406 16.667969 25.5 16 25.5 C 10.742188 25.5 6.5 21.257813 6.5 16 C 6.5 15.332031 6.558594 14.691406 6.6875 14.0625 C 6.738281 13.828125 6.707031 13.585938 6.59375 13.375 C 6.210938 12.667969 6 11.863281 6 11 C 6 8.226563 8.226563 6 11 6 Z M 15.84375 9.15625 C 13.371094 9.15625 10.71875 10.203125 10.71875 13 C 10.71875 14.347656 11.195313 15.773438 13.84375 16.4375 L 17.15625 17.25 C 18.152344 17.496094 18.40625 18.058594 18.40625 18.5625 C 18.40625 19.402344 17.574219 20.21875 16.0625 20.21875 C 13.109375 20.21875 13.488281 17.96875 11.90625 17.96875 C 11.195313 17.96875 10.6875 18.457031 10.6875 19.15625 C 10.6875 20.519531 12.363281 22.3125 16.0625 22.3125 C 19.582031 22.3125 21.3125 20.613281 21.3125 18.34375 C 21.3125 16.875 20.636719 15.34375 17.96875 14.75 L 15.53125 14.1875 C 14.605469 13.976563 13.53125 13.714844 13.53125 12.84375 C 13.53125 11.96875 14.273438 11.34375 15.625 11.34375 C 18.347656 11.34375 18.117188 13.21875 19.46875 13.21875 C 20.179688 13.21875 20.78125 12.8125 20.78125 12.09375 C 20.78125 10.414063 18.121094 9.15625 15.84375 9.15625 Z"/>
</svg>

<svg xmlns="http://www.w3.org/2000/svg" viewBox="0 0 32 32" height="1em" width="1em">
  <path d="M11 4c-3.855 0-7 3.145-7 7 0 1.031.316 1.988.719 2.875A11.528 11.528 0 0 0 4.5 16c0 6.34 5.16 11.5 11.5 11.5.73 0 1.434-.09 2.125-.219.887.403 1.844.719 2.875.719 3.855 0 7-3.145 7-7 0-1.031-.316-1.988-.719-2.875.13-.691.219-1.395.219-2.125 0-6.34-5.16-11.5-11.5-11.5-.73 0-1.434.09-2.125.219C12.988 4.316 12.031 4 11 4Zm0 2c.863 0 1.668.21 2.375.594a1 1 0 0 0 .688.093A9.587 9.587 0 0 1 16 6.5c5.258 0 9.5 4.242 9.5 9.5 0 .668-.059 1.309-.188 1.938a1 1 0 0 0 .094.687c.383.707.594 1.512.594 2.375 0 2.773-2.227 5-5 5-.863 0-1.668-.21-2.375-.594a1 1 0 0 0-.688-.093A9.587 9.587 0 0 1 16 25.5 9.486 9.486 0 0 1 6.5 16c0-.668.059-1.309.188-1.938a1 1 0 0 0-.094-.687A4.956 4.956 0 0 1 6 11c0-2.773 2.227-5 5-5Zm4.844 3.156c-2.473 0-5.125 1.047-5.125 3.844 0 1.348.476 2.773 3.125 3.438l3.312.812c.996.246 1.25.809 1.25 1.313 0 .84-.832 1.656-2.343 1.656-2.954 0-2.575-2.25-4.157-2.25-.71 0-1.219.488-1.219 1.187 0 1.364 1.676 3.157 5.376 3.157 3.519 0 5.25-1.7 5.25-3.97 0-1.468-.676-3-3.344-3.593l-2.438-.563c-.926-.21-2-.472-2-1.343 0-.875.742-1.5 2.094-1.5 2.723 0 2.492 1.875 3.844 1.875.71 0 1.312-.406 1.312-1.125 0-1.68-2.66-2.938-4.937-2.938Z"/>
</svg>
